!!!SOCIAL_FUNCTION:	songs used in the treatment of the sick
!!!PDT:	1922
!!!OTL: No_64_Song_Used_in_Treatment_of_Sick_(m).krn
!!!REG: Southwest
!!!LANG: Non-Tone
!!!LING_GROUP: Uto-Aztecan
**kern
*staff1
=1-
*clefG2
*k[]
*M2/4
[2g/
=2
4g/]
4cc\
=3
2dd\
=4
4ee\
4dd\
=5
2cc\
=6
2dd\
=7
4cc\
4dd\
=8
2cc\
=9||
*M3/4
4g/
4e/
4e/
=10
2g/
4e/
=11
2g/
4e/
=12
4d/
[2c/
=13
2c/]
4e/
=14||
*M2/4
[2d/
=15
4d/]
4d/
=16
[2c/
=17
2c/]
=18
4d/
4c/
=19||
*M3/4
2.d/
=20||
*M2/4
[2c/
=21||
*M3/4
2c/]
4d/
=22||
*M2/4
4c/
4d/
=23||
*M3/4
[2.c/
=24||
*M2/4
2c/]
=25
2c/
=26
[2g/
=27
2g/_
=28||
*M3/4
2.g/]
=29||
*M2/4
4.cc\
8g/
=30
4.cc\
16g/LL
16e/JJ
=31
[2e/
=32
2e/]
=33
4.g/
8e/
=34
4.g/
8e/
=35
4g/
8e/L
8d/J
=36
4e/
4d/
=37
[2c/
=38
2c/]
=39
2c/
=40
[2G/
=41
2G/]
=42
4d/
4c/
=43
2c/
=44
[2d/
=45
4d/]
4c/
=46
2c/
=47
4d/
4c/
=48||
*M3/4
2.c/
=49||
*M2/4
[2c/
=50
2c/]
==
*-
